X: 32947
T: President Garfield's
R: hornpipe
M: 4/4
K: Dmajor
|(3fge|:dAFA dAFA|dcde fefg|aece aece|a^gab a=gfe|
dAFA dAFA|dcde fefg|abc'b agfe|1 d2 dc d2 (3fge:|2 d2 dc dad'c'||
|:bgdB GBdb|afdA FAda|gcba gcba|fdba fad'c'|
bgdB GBdb|afdA FAda|^gac'b a=gfe|1 d2 dc dad'c':|2 d2 c2 d2|

